X:1
T:Hold Out Your Hand
T:Hold Out Your Hand
T:James Ramsey Murray
T:Deamor R. Drake, 1896
T:Public Domain Courtesy of the Cyber Hymnal™
C:James Ramsey Murray
Z:Public Domain
Z:Courtesy of the Cyber Hymnal™
%%score ( 1 2 ) ( 3 4 )
L:1/8
Q:1/4=140
M:3/4
K:G
V:1 treble 
V:2 treble 
V:3 bass 
V:4 bass 
V:1
 D2 G2 [DA]2 | [GB]2 [FA]2 [GB]2 | [Gd]2 [Fc]2 [GB]2 | [FA]4 z2 | D2 [DA]2 [DB]2 | %5
w: 1.~Hold out your|hand in the|dark- ness of|sin,|Help some poor|
w: 2.~Hold out your|hand, for the|world is a|way|Made up of|
w: 3.~Hold out your|hand, then, wher-|ev- er you|are.|Kind deeds will|
 [Dc]2 [DB]2 [CA]2 | [CA]2 [B,G]2 [DA]2 | [GB]4 z2 | [GB]2 [DA]2 [GB]2 | [Gd]2 [Fc]2 [GB]2 | %10
w: sad heart the|ha- ven to|win,|Cheer up some|soul with a|
w: sad- ness and|sor- row each|day;|Smiles are a|help to the|
w: shine thro’ the|dark- ness a-|far;|Some sink- ing|soul may its|
 [EA]2 [E^G]2 [EA]2 | (c2 B2) [EA]2 | [DF]2 [^CG]2 [DA]2 | [GB]2 [DA]2 [DG]2 | [DF]2 [^CG]2 [CE]2 | %15
w: friend’s kind- ly|touch. * And|help all you|can, be it|lit- tle or|
w: suf- fer- ing|heart, * To|laugh at its|sad- ness and|make it de-|
w: twink- ling dis-|cern, * Oh,|come to the|ha- ven and|right- eous- ness|
 D4 z2 ||"^Refrain" [Gd]2 [Gd]2 [GB]2 | [Gd]4 z2 | [EG]2 [EG]2 [B,E]2 | [EG]4 z2 | %20
w: much.|||||
w: part.|Hold out your|hand,|hold out your|hand,|
w: learn.|||||
 [FA]2 [FA]2 [GB]2 | ([Bd]2 [Ac]2) [GB]2 | ([GB]6 | [FA]4) z2 | [Gd]2 [Gd]2 [GB]2 | [Gd]4 z2 | %26
w: ||||||
w: And bid their|hearts * be|strong;||Hold out your|hand,|
w: ||||||
 [=FG]2 [FB]2 [Fd]2 | !fermata![Ee]4 [Ge]2 | d4 [GB]2 | ([Ec]2 [DB]2) [CA]2 | [B,G]4 z2 |] %31
w: |||||
w: hold out your|hand, And|help the|world * a-|long.|
w: |||||
V:2
 D2 G2 x2 | x6 | x6 | x6 | D2 x4 | x6 | x6 | x6 | x6 | x6 | x6 | E4 x2 | x6 | x6 | x6 | D4 x2 || %16
 x6 | x6 | x6 | x6 | x6 | x6 | x6 | x6 | x6 | x6 | x6 | x6 | (G2 F2) x2 | x6 | x6 |] %31
V:3
 [G,B,]2 [G,B,]2 [G,C]2 | [G,D]2 [D,D]2 [G,D]2 | [B,D]2 [A,D]2 [G,D]2 | [D,D]4 z2 | %4
 [D,F,]2 [D,F,]2 [D,G,]2 | [D,A,]2 [D,G,]2 [D,F,]2 | [D,F,]2 [E,G,]2 [D,F,]2 | G,4 z2 | %8
 [G,D]2 [F,D]2 [G,D]2 | [B,D]2 [A,D]2 [G,D]2 | [C,C]2 [C,C]2 [C,C]2 | ([A,,C]2 [B,,G,]2) [C,C]2 | %12
 [D,A,]2 [E,A,]2 [F,D]2 | [G,D]2 [F,D]2 [G,B,]2 | A,2 A,2 [A,,G,]2 | [D,F,]4 z2 || %16
 [G,B,]2 [G,B,]2 [G,D]2 | [G,B,]4 z2 | [E,B,]2 [E,B,]2 [E,G,]2 | [E,B,]4 z2 | %20
 [D,D]2 [D,D]2 [D,D]2 | [D,D]4 [D,D]2 | [D,D]6- | [D,D]4 z2 | [G,B,]2 [G,B,]2 [G,D]2 | [G,B,]4 z2 | %26
 [G,B,]2 [G,D]2 [G,B,]2 | !fermata![C,C]4 [C,C]2 | (B,2 A,2) [E,G,]2 | ([A,,A,]2 [D,G,]2) [D,F,]2 | %30
 [G,,G,]4 z2 |] %31
V:4
 x6 | x6 | x6 | x6 | x6 | x6 | x6 | G,4 x2 | x6 | x6 | x6 | x6 | x6 | x6 | A,2 A,2 x2 | x6 || x6 | %17
 x6 | x6 | x6 | x6 | x6 | x6 | x6 | x6 | x6 | x6 | x6 | D,4 x2 | x6 | x6 |] %31

